tools/download-figma-icons/icons/action/fullscreen.svg

<svg width="24" height="24" viewBox="0 0 24 24" fill="none" xmlns="http://www.w3.org/2000/svg">
<path fill-rule="evenodd" clip-rule="evenodd" d="M0.00514984 8.73335C0.0596638 9.30383 0.540228 9.75 1.125 9.75L1.23335 9.74485C1.80383 9.69034 2.25 9.20977 2.25 8.625V2.25H8.625L8.73335 2.24485C9.30383 2.19034 9.75 1.70977 9.75 1.125C9.75 0.503679 9.24632 0 8.625 0H1.125L1.01665 0.00514984C0.446166 0.0596638 0 0.540228 0 1.125V8.625L0.00514984 8.73335ZM23.9949 15.2667C23.9403 14.6962 23.4598 14.25 22.875 14.25L22.7667 14.2551C22.1962 14.3097 21.75 14.7902 21.75 15.375V21.75H15.375L15.2667 21.7551C14.6962 21.8097 14.25 22.2902 14.25 22.875C14.25 23.4963 14.7537 24 15.375 24H22.875L22.9833 23.9949C23.5538 23.9403 24 23.4598 24 22.875V15.375L23.9949 15.2667ZM14.25 1.125C14.25 0.540228 14.6962 0.0596638 15.2667 0.00514984L15.375 0H22.875C23.4598 0 23.9403 0.446166 23.9949 1.01665L24 1.125V8.625C24 9.24632 23.4963 9.75 22.875 9.75C22.2902 9.75 21.8097 9.30383 21.7551 8.73335L21.75 8.625L21.7492 2.25H15.375C14.7902 2.25 14.3097 1.80383 14.2551 1.23335L14.25 1.125ZM8.73335 23.9949C9.30383 23.9403 9.75 23.4598 9.75 22.875L9.74485 22.7667C9.69034 22.1962 9.20977 21.75 8.625 21.75H2.25V15.375L2.24485 15.2667C2.19034 14.6962 1.70977 14.25 1.125 14.25C0.503679 14.25 0 14.7537 0 15.375V22.875L0.00514984 22.9833C0.0596638 23.5538 0.540228 24 1.125 24H8.625L8.73335 23.9949Z" fill="black"/>
</svg>

<svg xmlns="http://www.w3.org/2000/svg" width="24" height="24" fill="none" viewBox="0 0 24 24"><path fill="currentColor" fill-rule="evenodd" d="M.005 8.733c.055.57.535 1.017 1.12 1.017l.108-.005a1.125 1.125 0 0 0 1.017-1.12V2.25h6.375l.108-.005A1.125 1.125 0 0 0 8.625 0h-7.5l-.108.005A1.125 1.125 0 0 0 0 1.125v7.5zm23.99 6.534a1.125 1.125 0 0 0-1.12-1.017l-.108.005a1.125 1.125 0 0 0-1.017 1.12v6.375h-6.375l-.108.005A1.125 1.125 0 0 0 15.375 24h7.5l.108-.005A1.125 1.125 0 0 0 24 22.875v-7.5zM14.25 1.125c0-.585.446-1.065 1.017-1.12L15.375 0h7.5c.585 0 1.065.446 1.12 1.017l.005.108v7.5a1.125 1.125 0 0 1-2.245.108l-.005-.108V2.25h-6.375a1.125 1.125 0 0 1-1.12-1.017zm-5.517 22.87a1.125 1.125 0 0 0 1.017-1.12l-.005-.108a1.125 1.125 0 0 0-1.12-1.017H2.25v-6.375l-.005-.108A1.125 1.125 0 0 0 0 15.375v7.5l.005.108C.06 23.553.54 24 1.125 24h7.5z" clip-rule="evenodd"/></svg>
